X: 39038
T: Swans Among The Rushes
R: jig
M: 6/8
K: Gmajor
(3Bcd|:gfg agf|gdB e{f}ed|cBc EFG|AGE D3|
DGB DGB|dcB c2 g|fed cAF|1 AGF G (3Bcd:|2 AGF G2A||
|:Bcd efg|fdf ecA|GG/c/d eag|fdf ~g3|
Bcd efg|fdf ecA|fff agf|gba g3:|

